X:1
T:Lagos (Bellerby), 87.87 D
T:Edward Johnson Bellerby, ca. 1899
T:Lagos (Bellerby), 87.87 D
T:Public Domain
C:Edward Johnson Bellerby, ca. 1899
Z:Public Domain
%%score ( 1 2 ) ( 3 4 )
L:1/8
M:4/4
K:D
V:1 treble 
V:2 treble 
V:3 bass 
V:4 bass 
V:1
 [Fd]2 | [DA]2 [DB]2 [DF]2 [DG]2 | D2 z G [CE]2 [CE]2 | [DF]2 [CG]2 [DA]2 (EG) x | %4
 [Ad]4 [Ac]2 [Fd]2 | [FA]2 [GB]2 [DF]2 [DG]2 | ^D2 z G E2 E2 x | [DF]2 [E^G]2 [EA]2 [Fd]2 | %8
 (E2 D2) [CA]2 [EA]2 | E2 z c [Dd]2 [DA]2 | [Gc]2 [FB]2 [EA]2 [DG]2 | %11
 [CF]2 [EF]2 [EF]2 ([FA][EG]) | [DF]4 [CE]2 [Dd]2 | [CA]2 [B,B]2 [^DF]2 [EG]2 | %14
 E2 z G [CE]2 [CF]2 | [B,D]2 [CE]2 [DF]2 [DA]2 | (D2 C2) D2 |] %17
V:2
 x2 | x8 | A3 E2 x3 | x6 d2 x | x8 | x8 | A3 (E2 E2) E2 | x8 | B4 x4 | e3 E2 x3 | x8 | x8 | x8 | %13
 x8 | A3 E2 x3 | x8 | E4 D2 |] %17
V:3
 [D,A,]2 | [F,D]2 [G,D]2 [B,D]2 [G,B,]2 | [F,A,]2 [G,B,]2 [A,C]2 [A,,A,]2 | %3
 [D,A,]2 [E,A,]2 F,2 z E x | [A,F]4 [A,E]2 [B,D]2 | [=CD]2 [B,D]2 [A,C]2 [G,B,]2 | %6
 [F,A,]2 [G,B,]2 [A,C]2 [C,A,]2 x | [D,A,]2 [D,B,]2 [C,A,]2 [B,,A,]2 | (A,2 ^G,2) [A,,A,]2 [A,C]2 | %9
 G,2 z A, [F,A,]2 [F,A,]2 | [E,G,]2 (A,B,) [C,C]2 [B,,D]2 | [^A,,E]2 [F,,^A,]2 [B,,B,]2 [G,,B,]2 | %12
 [A,,A,]4 [G,A,]2 [F,A,]2 | [E,G,]2 [^D,F,]2 [A,B,]2 [G,B,]2 | [F,=C]2 [G,B,]2 A,2 [F,^A,]2 | %15
 [B,,F,]2 [A,,A,]2 [D,A,]2 [F,,A,]2 | [A,,G,]4 [D,F,]2 |] %17
V:4
 x2 | x8 | x8 | x4 D3 B,2 | x8 | x8 | x9 | x8 | E,4 x4 | B,3 G,2 x3 | x2 D,2 x4 | x8 | x8 | x8 | %14
 x4 ^A,2 x2 | x8 | x6 |] %17

